Sources/FrostedUI/Resources/Icons.xcassets/peoplePlus24.imageset/people-plus-24.svg

<svg width="24" height="24" viewBox="0 0 24 24" fill="none" xmlns="http://www.w3.org/2000/svg" data-fui-icon="true">
  <path
    d="M19 13.25C19.4142 13.25 19.75 13.5858 19.75 14V17.25H23C23.4142 17.25 23.75 17.5858 23.75 18C23.75 18.4142 23.4142 18.75 23 18.75H19.75V22C19.75 22.4142 19.4142 22.75 19 22.75C18.5858 22.75 18.25 22.4142 18.25 22V18.75H15C14.5858 18.75 14.25 18.4142 14.25 18C14.25 17.5858 14.5858 17.25 15 17.25H18.25V14C18.25 13.5858 18.5858 13.25 19 13.25ZM17.7939 8.25C20.393 8.25 22.6276 9.85863 23.4316 12.1406L23.5059 12.3623C23.6673 12.884 23.75 13.4364 23.75 14C23.75 14.4142 23.4142 14.75 23 14.75C22.5858 14.75 22.25 14.4142 22.25 14C22.25 13.5239 22.1698 13.0657 22.0195 12.6465L22.0176 12.6426L21.8955 12.335C21.2227 10.8249 19.6494 9.75 17.7939 9.75C16.067 9.75008 14.5796 10.6895 13.8418 12.043C14.5344 12.5849 15.1366 13.232 15.623 13.959C15.8533 14.3032 15.7611 14.7686 15.417 14.999C15.0727 15.2294 14.6073 15.1372 14.377 14.793C13.1097 12.899 10.871 11.658 8.3291 11.7559C4.6226 11.8982 1.75 15.0238 1.75 18.6367C1.75 19.5068 2.48266 20.25 3.43945 20.25H13.2861C13.7002 20.2501 14.0361 20.5859 14.0361 21C14.0361 21.4141 13.7002 21.7499 13.2861 21.75H3.43945C1.69932 21.75 0.250003 20.3796 0.25 18.6367C0.25 14.2447 3.73291 10.4311 8.27148 10.2568C9.83355 10.1967 11.3055 10.5555 12.5791 11.2266C13.5968 9.44398 15.5606 8.25008 17.7939 8.25ZM8.5 1.25C10.8472 1.25 12.75 3.15279 12.75 5.5C12.75 7.84721 10.8472 9.75 8.5 9.75C6.15279 9.75 4.25 7.84721 4.25 5.5C4.25 3.15279 6.15279 1.25 8.5 1.25ZM8.5 2.75C6.98122 2.75 5.75 3.98122 5.75 5.5C5.75 7.01878 6.98122 8.25 8.5 8.25C10.0188 8.25 11.25 7.01878 11.25 5.5C11.25 3.98122 10.0188 2.75 8.5 2.75ZM17.5 1.25C19.2949 1.25 20.75 2.70507 20.75 4.5C20.75 6.29493 19.2949 7.75 17.5 7.75C15.7051 7.75 14.25 6.29493 14.25 4.5C14.25 2.70507 15.7051 1.25 17.5 1.25ZM17.5 2.75C16.5335 2.75 15.75 3.5335 15.75 4.5C15.75 5.4665 16.5335 6.25 17.5 6.25C18.4665 6.25 19.25 5.4665 19.25 4.5C19.25 3.5335 18.4665 2.75 17.5 2.75Z"
    fill="currentColor"
  />
</svg>

<svg xmlns="http://www.w3.org/2000/svg" width="24" height="24" fill="none" data-fui-icon="true" viewBox="0 0 24 24"><path fill="currentColor" d="M19 13.25a.75.75 0 0 1 .75.75v3.25H23a.75.75 0 0 1 0 1.5h-3.25V22a.75.75 0 0 1-1.5 0v-3.25H15a.75.75 0 0 1 0-1.5h3.25V14a.75.75 0 0 1 .75-.75m-1.206-5c2.599 0 4.834 1.609 5.638 3.89l.074.222c.161.522.244 1.074.244 1.638a.75.75 0 0 1-1.5 0c0-.476-.08-.934-.23-1.354l-.002-.003-.123-.308c-.672-1.51-2.246-2.585-4.101-2.585-1.727 0-3.214.94-3.952 2.293a8.3 8.3 0 0 1 1.781 1.916.75.75 0 1 1-1.246.834c-1.267-1.894-3.506-3.135-6.048-3.037-3.706.142-6.579 3.268-6.579 6.88 0 .87.733 1.614 1.69 1.614h9.846a.75.75 0 0 1 0 1.5H3.44C1.7 21.75.25 20.38.25 18.637c0-4.392 3.483-8.206 8.021-8.38a8.5 8.5 0 0 1 4.308.97c1.018-1.783 2.982-2.977 5.215-2.977m-9.294-7a4.25 4.25 0 1 1 0 8.5 4.25 4.25 0 0 1 0-8.5m0 1.5a2.75 2.75 0 1 0 0 5.5 2.75 2.75 0 0 0 0-5.5m9-1.5a3.25 3.25 0 1 1 0 6.5 3.25 3.25 0 0 1 0-6.5m0 1.5a1.75 1.75 0 1 0 0 3.5 1.75 1.75 0 0 0 0-3.5"/></svg>
